icon/svgs/brands/webflow.svg

<svg xmlns="http://www.w3.org/2000/svg" viewBox="0 0 640 512"><!--! Font Awesome Free 7.1.0 by @fontawesome - https://fontawesome.com License - https://fontawesome.com/license/free (Icons: CC BY 4.0, Fonts: SIL OFL 1.1, Code: MIT License) Copyright 2025 Fonticons, Inc. --><path fill="currentColor" d="M640 64l-204.2 399.2-191.8 0 85.5-165.5-3.8 0C255.1 389.3 149.9 449.5 0 463.2L0 300.1s95.9-5.7 152.3-64.9l-152.3 0 0-171.2 171.1 0 0 140.8 3.8 0 70-140.8 129.4 0 0 139.9 3.8 0 72.6-139.9 189.3 0z"/></svg>

<svg xmlns="http://www.w3.org/2000/svg" viewBox="0 0 640 512"><!--! Font Awesome Free 6.6.0 by @fontawesome - https://fontawesome.com License - https://fontawesome.com/license/free (Icons: CC BY 4.0, Fonts: SIL OFL 1.1, Code: MIT License) Copyright 2024 Fonticons, Inc. --><path d="M640 64L435.8 463.2H244l85.5-165.5h-3.8C255.1 389.3 149.9 449.5 0 463.2V300.1s95.9-5.7 152.3-64.9H0V64H171.1V204.8l3.8 0L244.9 64H374.3V203.9l3.8 0L450.7 64H640z"/></svg>
